X:1
T:In the Bleak Midwinter
C:Gustav Holst
M:4/4
L:1/4
K:D
|:F
|"D"F>G AF | "Bm"E2 D2 | "Em"E>F EB, | "A7"E3 z 
| "D"F>G AF | "Bm"E2 D2 | "Em"EF "A7"E>D | "D"D3 z :|
|:"G"GF GA | "Bm"B2 F2 | "D"AF ED | "A7"E3 z 
| "D"F>G AF | "Bm"E2 D2 | "Em"EF "A7"E>D | "D"D-"G"D-"D"D:|
